docs/images/logo.svg

<svg
    xmlns="http://www.w3.org/2000/svg"
    viewBox="0 0 512 512"
    id="vector">
    <path
        id="path"
        d="M 263.36 413.93 L 263.36 448.12 C 282.36 458.61 288.88 470.25 284.36 485.64 C 280.36 499.22 268.16 507.72 253.73 506.95 C 240.73 506.26 229.03 495.75 226.91 482.82 C 224.37 467.38 231.8 455.46 248.46 448.57 L 248.46 412.32 C 218.309 410.747 189.224 400.597 164.64 383.07 C 156.92 395.44 148.99 407.15 142.14 419.47 C 137.96 426.97 132.83 429.72 124.31 429.31 C 110.01 428.61 95.65 429.12 81.21 429.12 C 80.63 430.55 80.13 431.81 79.6 433.06 C 76.991 439.435 72.242 444.708 66.173 447.966 C 60.104 451.224 53.085 452.269 46.33 450.92 C 33.27 448.52 23.02 436.49 22.67 423.12 C 22.29 408.65 31.75 396.19 45.49 393.07 C 59.23 389.95 73.12 396.48 78.86 409.57 C 80.71 413.78 82.77 414.96 87.17 414.84 C 99.43 414.5 111.7 414.84 123.97 414.63 C 125.74 414.63 128.29 413.85 129.13 412.55 C 136.57 401.12 143.71 389.5 150.92 377.92 C 151.64 376.76 152.27 375.55 153.12 374.06 Q 104.12 329.76 99.57 263.54 L 63.78 263.54 C 53.36 282.21 41.95 288.73 26.78 284.54 C 20.447 282.803 14.867 279.01 10.923 273.759 C 6.98 268.508 4.891 262.092 4.989 255.526 C 5.086 248.96 7.364 242.608 11.461 237.477 C 15.559 232.345 21.248 228.718 27.63 227.17 C 42.93 223.6 54.73 230.58 63.63 248.5 L 99.59 248.5 Q 104.02 182.32 153.23 137.81 C 145.1 124.81 137.12 111.88 129 99.07 C 128.602 98.563 128.102 98.146 127.531 97.846 C 126.961 97.546 126.333 97.37 125.69 97.33 C 110.84 97.21 95.99 97.25 81.29 97.25 C 73.4 114.88 61 122.31 45.62 119 C 39.088 117.49 33.258 113.807 29.088 108.557 C 24.918 103.308 22.65 96.795 22.657 90.091 C 22.664 83.387 24.946 76.879 29.126 71.638 C 33.307 66.397 39.145 62.727 45.68 61.23 C 61.21 57.91 73.46 65.29 81.31 82.91 C 96.88 82.91 112.59 83.1 128.31 82.8 C 133.86 82.7 137.22 84.74 140.03 89.42 C 147.92 102.58 156.19 115.5 164.58 128.96 C 189.279 111.382 218.494 101.222 248.77 99.68 C 248.77 88.07 248.9 76.68 248.58 65.38 C 248.58 64.16 246.09 62.64 244.46 61.9 C 232.84 56.63 225.46 44.9 226.46 32.96 C 227.56 19.7 235.81 9.41 248 6.09 C 255.233 4.034 262.986 4.815 269.664 8.271 C 276.342 11.728 281.455 17.607 283.952 24.7 C 286.45 31.793 286.148 39.579 283.108 46.457 C 280.069 53.336 274.516 58.801 267.59 61.73 C 266.33 62.28 265.03 62.73 263.49 63.35 L 263.49 99.57 C 293.593 101.212 322.619 111.368 347.18 128.85 C 348.18 127.36 349.18 126.05 350.04 124.66 C 357.43 112.8 365 101 372.13 89 C 374.86 84.44 378.27 82.69 383.55 82.78 C 399.25 83.04 414.97 82.88 430.55 82.88 C 439.02 64.93 451.24 57.67 466.65 61.24 C 473.249 62.854 479.099 66.685 483.216 72.089 C 487.333 77.493 489.475 84.149 489.28 90.94 C 489 104.36 479 116.44 465.94 119 C 453.43 121.48 437.54 116.65 430.73 97.27 C 415.87 97.27 400.87 97.27 385.87 97.34 C 385.301 97.395 384.75 97.572 384.255 97.859 C 383.76 98.145 383.332 98.534 383 99 C 374.9 111.82 366.9 124.72 358.74 137.82 C 391.52 167.54 409.41 204.31 412.34 248.76 C 423.93 248.76 435.29 248.88 446.64 248.57 C 447.84 248.57 449.36 246.05 450.08 244.42 C 455.08 232.97 466.85 225.62 479.08 226.42 C 486.104 226.811 492.763 229.695 497.854 234.551 C 502.944 239.407 506.139 245.923 506.86 252.921 C 507.582 259.918 505.784 266.949 501.791 272.742 C 497.799 278.534 491.868 282.716 485.071 284.532 C 478.275 286.348 471.049 285.681 464.699 282.652 C 458.35 279.622 453.285 274.425 450.42 268 C 449.79 266.59 449.24 265.14 448.56 263.46 L 412.36 263.46 C 409.47 307.23 391.73 344.05 358.73 373.98 C 362.93 380.76 367.16 387.61 371.41 394.44 C 375.06 400.31 378.64 406.22 382.41 411.97 C 383.22 413.19 384.94 414.56 386.26 414.57 C 401.1 414.76 415.95 414.69 430.65 414.69 C 438.12 397.37 450.26 389.93 465.77 392.91 C 479 395.44 489.13 407.74 489.25 421.4 C 489.38 435.52 479.66 447.91 466.25 450.78 C 450.82 454.08 438.56 446.69 430.61 429.1 C 416.25 429.1 401.72 428.58 387.25 429.3 C 378.81 429.72 373.97 426.74 369.91 419.52 C 362.99 407.22 355.1 395.46 348.16 384.34 C 334.26 390.92 321.16 398.46 307.16 403.34 C 293.16 408.22 278.53 410.4 263.36 413.93 Z M 255.71 398.05 C 333.87 398.05 397.88 334.78 398.01 257.31 C 398.15 177.67 335 114 255.69 113.94 C 177.87 113.88 113.99 177.55 113.94 255.22 C 113.9 334.3 177.14 398 255.71 398.05 Z M 256 49.66 C 260.011 49.609 263.841 47.967 266.643 45.097 C 269.445 42.227 270.994 38.358 270.948 34.348 C 270.902 30.337 269.265 26.505 266.398 23.7 C 263.531 20.895 259.664 19.341 255.653 19.382 C 251.643 19.423 247.808 21.057 245 23.92 C 242.192 26.784 240.633 30.649 240.67 34.66 C 240.741 38.672 242.39 42.498 245.258 45.304 C 248.126 48.111 251.988 49.676 256 49.66 Z M 37.06 90.06 C 37.108 94.065 38.745 97.891 41.609 100.691 C 44.472 103.491 48.334 105.041 52.339 104.999 C 56.344 104.956 60.172 103.324 62.976 100.465 C 65.779 97.605 67.335 93.745 67.298 89.74 C 67.261 85.735 65.635 81.905 62.779 79.097 C 59.923 76.289 56.065 74.728 52.06 74.76 C 48.045 74.805 44.208 76.442 41.397 79.309 C 38.586 82.176 37.025 86.045 37.06 90.06 Z M 474.9 90.17 C 474.879 86.165 473.267 82.328 470.422 79.509 C 467.577 76.69 463.725 75.114 459.72 75.13 C 455.715 75.146 451.876 76.753 449.054 79.594 C 446.231 82.435 444.65 86.285 444.66 90.29 C 444.671 94.295 446.272 98.136 449.11 100.963 C 451.947 103.789 455.795 105.375 459.8 105.37 C 463.805 105.32 467.635 103.699 470.458 100.857 C 473.28 98.015 474.877 94.175 474.9 90.17 Z M 492.55 256.23 C 492.582 252.799 491.446 249.456 489.33 246.755 C 487.214 244.053 484.241 242.15 480.902 241.358 C 477.563 240.567 474.052 240.934 470.949 242.399 C 467.845 243.863 465.33 246.34 463.819 249.421 C 462.307 252.501 461.887 256.006 462.627 259.357 C 463.368 262.708 465.226 265.709 467.895 267.866 C 470.564 270.023 473.889 271.209 477.32 271.23 C 481.316 271.223 485.153 269.646 488 266.842 C 490.847 264.038 492.482 260.225 492.55 256.23 Z M 19.4 256 C 19.451 260.011 21.093 263.841 23.963 266.643 C 26.833 269.445 30.702 270.994 34.712 270.948 C 38.723 270.902 42.555 269.265 45.36 266.398 C 48.165 263.531 49.719 259.664 49.678 255.653 C 49.637 251.643 48.003 247.808 45.14 245 C 42.276 242.192 38.411 240.633 34.4 240.67 C 31.738 240.698 29.129 241.427 26.838 242.782 C 24.547 244.138 22.653 246.074 21.347 248.394 C 20.042 250.714 19.37 253.338 19.4 256 Z M 37.06 421.7 C 37.047 425.709 38.627 429.563 41.452 432.408 C 44.276 435.254 48.118 436.863 52.127 436.88 C 56.136 436.896 59.991 435.319 62.839 432.498 C 65.687 429.676 67.299 425.835 67.32 421.826 C 67.34 417.818 65.766 413.961 62.947 411.11 C 60.128 408.26 56.289 406.644 52.28 406.62 C 48.267 406.615 44.412 408.198 41.561 411.022 C 38.711 413.847 37.092 417.688 37.06 421.7 Z M 474.9 422 C 474.863 417.993 473.234 414.16 470.375 411.353 C 467.516 408.545 463.654 406.986 459.647 407.021 C 455.64 407.056 451.807 408.683 448.998 411.541 C 446.189 414.399 444.628 418.26 444.661 422.267 C 444.695 426.274 446.32 430.108 449.176 432.918 C 452.033 435.729 455.893 437.292 459.9 437.26 C 463.901 437.192 467.718 435.553 470.523 432.7 C 473.328 429.846 474.901 426.001 474.9 422 Z M 256 492.58 C 260.011 492.532 263.842 490.891 266.644 488.021 C 269.447 485.151 270.996 481.282 270.948 477.271 C 270.9 473.26 269.259 469.428 266.389 466.626 C 263.52 463.824 259.65 462.275 255.639 462.322 C 251.629 462.37 247.797 464.01 244.994 466.88 C 242.192 469.75 240.643 473.619 240.69 477.63 C 240.748 481.638 242.392 485.464 245.26 488.264 C 248.128 491.065 251.992 492.617 256 492.58 Z"
        fill="#19a7ce"
        stroke="#19a7ce"
        stroke-width="10"
        stroke-miterlimit="10"/>
    <path
        id="path_1"
        d="M 263.25 192.5 C 266.59 193.23 269.8 193.79 272.93 194.62 C 283.615 197.455 293.358 203.077 301.16 210.91 C 303.16 212.91 303.16 214.68 301.34 216.7 C 300.07 218.09 298.79 219.46 297.5 220.83 C 295.22 223.25 293.5 223.26 291.02 220.83 C 283.579 213.48 274.019 208.643 263.69 207 C 239.14 202.9 214.69 218.87 208.3 243.13 C 201.4 269.3 216.3 296.13 242.22 303.47 C 260.22 308.55 276.28 304.47 290.22 291.99 C 293 289.5 294.22 289.44 297.02 291.99 C 298.3 293.13 299.6 294.24 300.86 295.4 C 302.94 297.3 303.01 299.32 301.02 301.27 C 291.784 310.445 279.934 316.545 267.1 318.73 L 263.27 319.38 L 263.27 329.26 C 263.27 332.74 262.1 333.88 258.56 333.89 L 253.09 333.89 C 250.53 333.82 249.22 332.51 249.18 329.96 C 249.18 326.96 249.12 323.88 249.18 320.84 C 249.18 319.65 248.84 319.22 247.65 319.06 C 232.782 317.066 219.088 309.877 209.004 298.771 C 198.919 287.666 193.08 273.345 192.523 258.354 C 191.967 243.364 196.73 228.649 205.964 216.827 C 215.197 205.005 228.321 196.821 243 193.73 C 244.61 193.38 246.26 193.15 247.9 192.94 C 248.84 192.83 249.22 192.48 249.2 191.48 L 249.2 182.19 C 249.2 179.53 250.52 178.19 253.2 178.19 C 255.2 178.14 257.29 178.19 259.33 178.19 C 261.99 178.19 263.33 179.56 263.33 182.19 C 263.27 185.62 263.25 189.09 263.25 192.5 Z"
        fill="#19a7ce"
        stroke="#19a7ce"
        stroke-width="10"
        stroke-linejoin="bevel"
        stroke-miterlimit="10"/>
</svg>

<svg xmlns="http://www.w3.org/2000/svg" viewBox="0 0 512 512"><defs><style>.cls-1{fill:#00c555;stroke:#00c555;}.cls-1,.cls-2{stroke-miterlimit:10;stroke-width:10px;}.cls-2{fill:#83ff8f;stroke:#83ff8f;}</style></defs><g id="Layer_2"><g id="Layer_3" ><path class="cls-1" d="M263.36,413.93v34.19c19,10.49,25.52,22.13,21,37.52-4,13.58-16.2,22.08-30.63,21.31-13-.69-24.7-11.2-26.82-24.13-2.54-15.44,4.89-27.36,21.55-34.25V412.32a158.63,158.63,0,0,1-83.82-29.25c-7.72,12.37-15.65,24.08-22.5,36.4-4.18,7.5-9.31,10.25-17.83,9.84-14.3-.7-28.66-.19-43.1-.19-.58,1.43-1.08,2.69-1.61,3.94a29.67,29.67,0,0,1-33.27,17.86c-13.06-2.4-23.31-14.43-23.66-27.8-.38-14.47,9.08-26.93,22.82-30.05s27.63,3.41,33.37,16.5c1.85,4.21,3.91,5.39,8.31,5.27,12.26-.34,24.53,0,36.8-.21,1.77,0,4.32-.78,5.16-2.08,7.44-11.43,14.58-23.05,21.79-34.63.72-1.16,1.35-2.37,2.2-3.86q-49-44.3-53.55-110.52H63.78c-10.42,18.67-21.83,25.19-37,21a29.63,29.63,0,0,1,.85-57.37c15.3-3.57,27.1,3.41,36,21.33H99.59q4.43-66.18,53.64-110.69c-8.13-13-16.11-25.93-24.23-38.74a4.57,4.57,0,0,0-3.31-1.74c-14.85-.12-29.7-.08-44.4-.08C73.4,114.88,61,122.31,45.62,119a29.64,29.64,0,0,1,.06-57.77c15.53-3.32,27.78,4.06,35.63,21.68,15.57,0,31.28.19,47-.11,5.55-.1,8.91,1.94,11.72,6.62,7.89,13.16,16.16,26.08,24.55,39.54a159.16,159.16,0,0,1,84.19-29.28c0-11.61.13-23-.19-34.3,0-1.22-2.49-2.74-4.12-3.48-11.62-5.27-19-17-18-28.94C227.56,19.7,235.81,9.41,248,6.09a29.55,29.55,0,0,1,19.59,55.64c-1.26.55-2.56,1-4.1,1.62V99.57a159.28,159.28,0,0,1,83.69,29.28c1-1.49,2-2.8,2.86-4.19C357.43,112.8,365,101,372.13,89c2.73-4.56,6.14-6.31,11.42-6.22,15.7.26,31.42.1,47,.1,8.47-17.95,20.69-25.21,36.1-21.64a29.7,29.7,0,0,1,22.63,29.7C489,104.36,479,116.44,465.94,119c-12.51,2.48-28.4-2.35-35.21-21.73-14.86,0-29.86,0-44.86.07A4,4,0,0,0,383,99c-8.1,12.82-16.1,25.72-24.26,38.82,32.78,29.72,50.67,66.49,53.6,110.94,11.59,0,22.95.12,34.3-.19,1.2,0,2.72-2.52,3.44-4.15,5-11.45,16.77-18.8,29-18A29.58,29.58,0,1,1,450.42,268c-.63-1.41-1.18-2.86-1.86-4.54h-36.2c-2.89,43.77-20.63,80.59-53.63,110.52,4.2,6.78,8.43,13.63,12.68,20.46,3.65,5.87,7.23,11.78,11,17.53.81,1.22,2.53,2.59,3.85,2.6,14.84.19,29.69.12,44.39.12,7.47-17.32,19.61-24.76,35.12-21.78,13.23,2.53,23.36,14.83,23.48,28.49.13,14.12-9.59,26.51-23,29.38-15.43,3.3-27.69-4.09-35.64-21.68-14.36,0-28.89-.52-43.36.2-8.44.42-13.28-2.56-17.34-9.78-6.92-12.3-14.81-24.06-21.75-35.18-13.9,6.58-27,14.12-41,19S278.53,410.4,263.36,413.93Zm-7.65-15.88c78.16,0,142.17-63.27,142.3-140.74C398.15,177.67,335,114,255.69,113.94c-77.82-.06-141.7,63.61-141.75,141.28C113.9,334.3,177.14,398,255.71,398.05ZM256,49.66a15.14,15.14,0,1,0-15.33-15A15.27,15.27,0,0,0,256,49.66ZM37.06,90.06a15.12,15.12,0,1,0,15-15.3A15.17,15.17,0,0,0,37.06,90.06Zm437.84.11a15.12,15.12,0,1,0-15.1,15.2A15.29,15.29,0,0,0,474.9,90.17Zm17.65,166.06a15.14,15.14,0,1,0-15.23,15A15.26,15.26,0,0,0,492.55,256.23ZM19.4,256a15.14,15.14,0,1,0,15-15.33A15.16,15.16,0,0,0,19.4,256ZM37.06,421.7a15.13,15.13,0,1,0,15.22-15.08A15.2,15.2,0,0,0,37.06,421.7ZM474.9,422a15.12,15.12,0,1,0-15,15.26A15.26,15.26,0,0,0,474.9,422ZM256,492.58a15.13,15.13,0,1,0-15.31-14.95A15.17,15.17,0,0,0,256,492.58Z"/></g><g id="Layer_8"><path class="cls-2" d="M263.25,192.5c3.34.73,6.55,1.29,9.68,2.12a62.45,62.45,0,0,1,28.23,16.29c2,2,2,3.77.18,5.79-1.27,1.39-2.55,2.76-3.84,4.13-2.28,2.42-4,2.43-6.48,0A50.09,50.09,0,0,0,263.69,207c-24.55-4.1-49,11.87-55.39,36.13-6.9,26.17,8,53,33.92,60.34,18,5.08,34.06,1,48-11.48,2.78-2.49,4-2.55,6.8,0,1.28,1.14,2.58,2.25,3.84,3.41,2.08,1.9,2.15,3.92.16,5.87a63.18,63.18,0,0,1-33.92,17.46l-3.83.65c0,3.36,0,6.62,0,9.88,0,3.48-1.17,4.62-4.71,4.63-1.82,0-3.65,0-5.47,0-2.56-.07-3.87-1.38-3.91-3.93,0-3-.06-6.08,0-9.12,0-1.19-.34-1.62-1.53-1.78A63.63,63.63,0,0,1,243,193.73c1.61-.35,3.26-.58,4.9-.79.94-.11,1.32-.46,1.3-1.46,0-3.1,0-6.19,0-9.29,0-2.66,1.32-4,4-4,2-.05,4.09,0,6.13,0,2.66,0,4,1.37,4,4C263.27,185.62,263.25,189.09,263.25,192.5Z"/></g></g></svg>
